svgs/regular/square-dollar.svg

<svg xmlns="http://www.w3.org/2000/svg" viewBox="0 0 448 512"><!--! Font Awesome Pro 6.0.0-alpha3 by @fontawesome - https://fontawesome.com License - https://fontawesome.com/license (Commercial License) --><path d="M230 232.8L221.8 230.5c-39.84-10.81-38.72-16.92-37.37-23.98c2.219-11.94 24.91-17.86 52.47-13.92c7.156 1.031 16.28 3.328 27.84 7.016c12.62 4.094 26.16-2.938 30.16-15.56c4.031-12.62-2.969-26.14-15.59-30.16c-12.37-3.953-22.27-6.369-31.22-7.936V128c0-13.25-10.75-24-23.1-24c-13.25 0-23.1 10.75-23.1 24v17.16C166.3 150.5 142.5 169.3 137.2 197.7c-10.62 56.75 47.28 72.44 71.1 79.16l8.594 2.281c43.94 11.61 47.59 16.67 45.78 26.28c-2.25 11.92-24.75 17.92-52.62 13.91c-11.16-1.562-24.88-6.125-36.1-10.16l-6.5-2.156c-12.53-4.109-26.16 2.75-30.28 15.34c-4.125 12.59 2.75 26.16 15.34 30.28l6.281 2.078c12.79 4.266 27.16 8.775 41.25 11.21V384c0 13.25 10.75 24 23.1 24c13.25 0 23.1-10.75 23.1-24v-17.18c33.69-5.396 57.41-24.12 62.72-52.54C321.5 256.9 264.3 241.8 230 232.8zM384 32H64C28.65 32 0 60.66 0 96v320c0 35.34 28.65 64 64 64h320c35.35 0 64-28.66 64-64V96C448 60.66 419.3 32 384 32zM400 416c0 8.82-7.178 16-16 16H64c-8.822 0-16-7.18-16-16V96c0-8.82 7.178-16 16-16h320c8.822 0 16 7.18 16 16V416z"/></svg>

<svg xmlns="http://www.w3.org/2000/svg" viewBox="0 0 448 512"><!-- Font Awesome Pro 6.0.0-alpha2 by @fontawesome - https://fontawesome.com License - https://fontawesome.com/license (Commercial License) --><path d="M230.044 232.75L221.763 230.547C181.92 219.734 183.045 213.625 184.388 206.562C186.607 194.625 209.295 188.703 236.857 192.641C244.013 193.672 253.138 195.969 264.701 199.656C277.325 203.75 290.857 196.719 294.857 184.094C298.888 171.469 291.888 157.953 279.263 153.938C266.89 149.984 256.997 147.568 248.044 146.002V128C248.044 114.75 237.294 104 224.044 104S200.045 114.75 200.045 128V145.156C166.265 150.521 142.523 169.283 137.201 197.719C126.576 254.469 184.482 270.156 209.201 276.875L217.794 279.156C261.732 290.766 265.388 295.828 263.576 305.438C261.326 317.359 238.826 323.359 210.951 319.344C199.795 317.781 186.076 313.219 173.951 309.188L167.451 307.031C154.92 302.922 141.295 309.781 137.17 322.375S139.92 348.531 152.514 352.656L158.795 354.734C171.59 359 185.955 363.51 200.045 365.939V384C200.045 397.25 210.795 408 224.044 408S248.044 397.25 248.044 384V366.818C281.738 361.422 305.45 342.701 310.763 314.281C321.513 256.906 264.263 241.781 230.044 232.75ZM384 32H64C28.654 32 0 60.656 0 96V416C0 451.344 28.654 480 64 480H384C419.346 480 448 451.344 448 416V96C448 60.656 419.346 32 384 32ZM400 416C400 424.82 392.822 432 384 432H64C55.178 432 48 424.82 48 416V96C48 87.18 55.178 80 64 80H384C392.822 80 400 87.18 400 96V416Z"/></svg>
